X:36
T: Die Koenigstochter im Heeresdienst
N: Q3095H
O: Osteuropa, Tschechoslowakei, Slowakei
N: Melodievergleich zu Q0095, anderes Lied.
R: ???
M: 2/4
L: 1/8
K: G
 | GBdc | BA3 | ABcB | GA2z |
Gddc | BG3 | cBA2 | BAG2

@@@ Tune index: 1329
